assets/features/channel/east-asia/ibon.svg

<svg width="80" height="80" viewBox="0 0 80 80" fill="none" xmlns="http://www.w3.org/2000/svg">
<g clip-path="url(#clip0_2497_22817)">
<rect width="80" height="80" rx="8" fill="#3F3A39"/>
<path d="M67.9939 45.0613C67.9939 46.0104 68.0076 46.9595 67.9939 47.9087C67.9664 49.0916 67.1418 49.9307 66.056 49.9307C64.9702 49.9307 64.1594 49.0916 64.1319 47.8949C64.1044 46.1893 64.1594 44.4699 64.1044 42.7642C64.0632 41.1274 62.9911 39.8756 61.4931 39.5868C60.1737 39.3254 58.7305 40.0682 58.1121 41.3337C57.8372 41.8839 57.7547 42.4754 57.7547 43.0806C57.7685 44.5937 57.7685 46.1205 57.7547 47.6336C57.741 49.0503 56.9713 49.9444 55.7894 49.9307C54.6486 49.9169 53.8927 49.0366 53.879 47.6886C53.8652 45.9417 53.8515 44.2085 53.8927 42.4616C53.9889 38.6514 57.1638 35.5703 60.9433 35.584C64.7229 35.5978 67.8839 38.6927 67.9664 42.5029C68.0076 43.3557 67.9801 44.2085 67.9939 45.0613Z" fill="#FEFEFE"/>
<path d="M19.7118 42.7645C19.7118 44.4151 19.7256 46.0519 19.7118 47.7026C19.6981 49.023 18.9147 49.9309 17.7739 49.9584C16.6607 49.9859 15.7536 49.0781 15.7811 47.7576C15.836 44.0574 15.5749 40.3573 15.9185 36.6572C16.0285 35.4742 15.6574 35.1303 14.1868 35.0203C12.51 34.8965 11.5205 33.2321 12.2352 31.7328C12.6887 30.7837 13.747 30.2473 14.7503 30.4536C15.7811 30.6599 16.6607 31.5677 16.482 32.6131C16.1659 34.4288 16.4408 35.5705 18.5711 35.8318C19.382 35.9281 19.7118 36.8497 19.7118 37.7163C19.7118 39.4082 19.7118 41.0863 19.7118 42.7645Z" fill="#8FC21F"/>
<path fill-rule="evenodd" clip-rule="evenodd" d="M23.1479 30.4539C23.7389 29.9863 24.3983 29.8623 25.0991 30.1648C25.9236 30.5087 26.3089 31.1687 26.3228 32.0213C26.3502 33.438 26.3228 34.8277 26.3228 36.3133C28.1231 35.5293 29.869 35.3507 31.6694 35.9422C35.0226 37.0565 36.9878 40.4126 36.4243 44.0437C35.9158 47.3449 32.8922 49.9167 29.5112 49.9305C26.0754 49.9442 23.1483 47.4688 22.5435 44.0027C22.461 43.5627 22.3921 43.1224 22.3921 42.6824C22.3921 39.2299 22.4058 35.7766 22.4058 32.324C22.4058 31.5951 22.5571 30.9353 23.1479 30.4539ZM29.4839 39.5594C27.7247 39.5456 26.3502 40.9625 26.3501 42.7781C26.3501 44.58 27.7658 46.0107 29.4976 45.9832C31.2017 45.9693 32.6039 44.5248 32.6177 42.8055C32.6313 41.0175 31.2291 39.5733 29.4839 39.5594Z" fill="#FEFEFE"/>
<path fill-rule="evenodd" clip-rule="evenodd" d="M45.0962 35.5835C48.9719 35.5973 52.1744 38.8439 52.1606 42.7778C52.1606 46.7256 48.972 49.9448 45.0825 49.9448C41.1932 49.9446 38.0181 46.7118 38.0181 42.7642C38.0181 38.8303 41.2206 35.5837 45.0962 35.5835ZM45.0552 39.5454C43.3373 39.5593 41.9498 40.9901 41.936 42.7231C41.9225 44.4973 43.3511 45.9689 45.0825 45.9829C46.8279 45.9967 48.2436 44.5523 48.2437 42.7505C48.2437 40.9623 46.8144 39.5317 45.0552 39.5454Z" fill="#FEFEFE"/>
</g>
<defs>
<clipPath id="clip0_2497_22817">
<rect width="80" height="80" rx="8" fill="white"/>
</clipPath>
</defs>
</svg>

<svg xmlns="http://www.w3.org/2000/svg" width="80" height="80" fill="none" viewBox="0 0 80 80"><g clip-path="url(#a)"><rect width="80" height="80" fill="#3f3a39" rx="8"/><path fill="#fefefe" d="M67.994 45.061c0 .95.014 1.898 0 2.848-.028 1.183-.852 2.022-1.938 2.022s-1.897-.84-1.924-2.036c-.028-1.706.027-3.425-.028-5.13-.04-1.638-1.113-2.89-2.61-3.178-1.32-.262-2.764.481-3.382 1.747-.275.55-.357 1.141-.357 1.747.014 1.513.014 3.04 0 4.553-.014 1.416-.784 2.31-1.966 2.297-1.14-.014-1.896-.894-1.91-2.242-.014-1.747-.027-3.48.014-5.227.096-3.81 3.27-6.892 7.05-6.878s6.94 3.109 7.023 6.919c.042.853.014 1.706.028 2.558"/><path fill="#8fc21f" d="M19.712 42.765c0 1.65.014 3.287 0 4.938-.014 1.32-.797 2.228-1.938 2.255-1.113.028-2.02-.88-1.993-2.2.055-3.7-.206-7.4.137-11.1.11-1.184-.26-1.528-1.731-1.638-1.677-.123-2.666-1.788-1.952-3.287.454-.95 1.512-1.486 2.515-1.28 1.031.207 1.91 1.115 1.732 2.16-.316 1.816-.041 2.958 2.09 3.219.81.096 1.14 1.018 1.14 1.884z"/><path fill="#fefefe" fill-rule="evenodd" d="M23.148 30.454c.59-.468 1.25-.592 1.951-.29.825.345 1.21 1.005 1.224 1.857.027 1.417 0 2.807 0 4.292 1.8-.784 3.546-.962 5.346-.37 3.354 1.114 5.319 4.47 4.755 8.1-.508 3.302-3.532 5.874-6.913 5.888-3.436.013-6.363-2.462-6.967-5.928-.083-.44-.152-.88-.152-1.32 0-3.453.014-6.906.014-10.359 0-.729.151-1.389.742-1.87m6.336 9.105c-1.76-.013-3.134 1.404-3.134 3.22 0 1.801 1.416 3.232 3.148 3.204 1.704-.014 3.106-1.458 3.12-3.177.013-1.788-1.389-3.233-3.134-3.247m15.612-3.975c3.876.013 7.078 3.26 7.065 7.194 0 3.948-3.189 7.167-7.078 7.167s-7.065-3.233-7.065-7.18c0-3.935 3.203-7.181 7.078-7.181m-.04 3.961c-1.719.014-3.106 1.445-3.12 3.178-.014 1.774 1.415 3.246 3.147 3.26 1.745.014 3.16-1.43 3.16-3.232 0-1.789-1.429-3.22-3.188-3.206" clip-rule="evenodd"/></g><defs><clipPath id="a"><rect width="80" height="80" fill="#fff" rx="8"/></clipPath></defs></svg>
